icons/drone.svg

<svg viewBox="0 0 230 230" xmlns="http://www.w3.org/2000/svg"><g transform="translate(-285.000000, -35.000000)" fill="#eceff1"><path d="M340.288221,69.3797473 L339.429583,70.2383855 L374.476463,105.285265 C369.520903,113.022443 366.666667,122.524707 366.666667,133.333333 C366.666667,163.38141 388.72549,183.333333 416.666667,183.333333 C427.107498,183.333333 436.726972,180.547433 444.681066,175.489868 L479.90668,210.715482 C461.655003,234.822389 432.652657,250 400,250 C344.78022,250 300,206.593407 300,150 C300,116.344376 315.836888,87.3523756 340.288221,69.3797473 Z M356.958511,59.4830419 C369.995354,53.3798856 384.591235,50 400,50 C455.21978,50 500,93.4065934 500,150 C500,165.565882 496.612323,180.134166 490.551518,193.076049 L458.85687,161.381401 C463.81243,153.644224 466.666667,144.14196 466.666667,133.333333 C466.666667,103.285256 444.607843,83.3333333 416.666667,83.3333333 C406.225835,83.3333333 396.606361,86.1192334 388.652268,91.1767986 L356.958511,59.4830419 Z M416.666667,163.333333 C399.901961,163.333333 386.666667,151.362179 386.666667,133.333333 C386.666667,115.304487 399.901961,103.333333 416.666667,103.333333 C433.431373,103.333333 446.666667,115.304487 446.666667,133.333333 C446.666667,151.362179 433.431373,163.333333 416.666667,163.333333 Z"/></g></svg>

<?xml version="1.0" encoding="UTF-8"?>
<svg version="1.1" viewBox="0 0 230 230" xmlns="http://www.w3.org/2000/svg">
 <g transform="matrix(.97114 0 0 .97114 -273.46 -30.671)" fill="#cfd8dc">
  <path d="m340.29 69.38-0.85864 0.85864 35.047 35.047c-4.9556 7.7372-7.8098 17.239-7.8098 28.048 0 30.048 22.059 50 50 50 10.441 0 20.06-2.7859 28.014-7.8435l35.226 35.226c-18.252 24.107-47.254 39.285-79.907 39.285-55.22 0-100-43.407-100-100 0-33.656 15.837-62.648 40.288-80.62zm16.67-9.8967c13.037-6.1032 27.633-9.483 43.041-9.483 55.22 0 100 43.407 100 100 0 15.566-3.3877 30.134-9.4485 43.076l-31.695-31.695c4.9556-7.7372 7.8098-17.239 7.8098-28.048 0-30.048-22.059-50-50-50-10.441 0-20.06 2.7859-28.014 7.8435zm59.708 103.85c-16.765 0-30-11.971-30-30 0-18.029 13.235-30 30-30 16.765 0 30 11.971 30 30 0 18.029-13.235 30-30 30z" fill="#cfd8dc"/>
 </g>
</svg>
